src/assets/icons/ic-edit.svg

<svg width="24" height="24" viewBox="0 0 24 24" fill="none" xmlns="http://www.w3.org/2000/svg">
  <path fill-rule="evenodd" clip-rule="evenodd"
    d="M17.5158 3L20.3443 5.82843L18.9297 7.24302L16.1012 4.4146L17.5158 3ZM15.3941 3.70749L15.3938 3.70712L14.6867 4.41423L14.687 4.4146L4.14218 14.9594C4.00966 15.092 3.91704 15.2591 3.8749 15.4417L3.02637 19.1186C2.8602 19.8387 3.50555 20.4841 4.22562 20.3179L7.90258 19.4694C8.0852 19.4272 8.2523 19.3346 8.38482 19.2021L21.0514 6.53553C21.4419 6.14501 21.4419 5.51184 21.0514 5.12132L18.2229 2.29289C17.8324 1.90237 17.1993 1.90237 16.8087 2.29289L15.3941 3.70749ZM15.3941 5.1217L18.2226 7.95013L7.67772 18.495L4.00076 19.3435L4.84929 15.6665L15.3941 5.1217Z"
    fill="#5A5A5C" />
</svg>

<svg width="24" height="24" xmlns="http://www.w3.org/2000/svg">
  <path fill-rule="evenodd" clip-rule="evenodd"
    d="M17.516 3l2.828 2.828-1.414 1.415L16.1 4.415 17.516 3zm-2.122.707l-.707.707L4.142 14.96a1 1 0 00-.267.483l-.849 3.677a1 1 0 001.2 1.199l3.677-.849a1 1 0 00.482-.267L21.05 6.536a1 1 0 000-1.415l-2.828-2.828a1 1 0 00-1.414 0l-1.415 1.414zm0 1.415l2.829 2.828L7.678 18.495 4 19.343l.848-3.677L15.394 5.122z" />
</svg>
